X:1
T:Title
%%score [ ( 1 2 ) ( 3 4 ) ] { ( 5 6 ) | ( 7 8 ) }
L:1/8
Q:1/4=120
M:4/4
K:A
V:1 treble nm="Midi_74"
V:2 treble 
V:3 bass nm="Midi_74"
V:4 bass 
V:5 treble nm="Org."
V:6 treble 
V:7 bass 
V:8 bass 
V:1
 c8 | f4 e4 | d8 || c8 | (F3 G) A4 | d4 B4 | c8 || A8 | d4 c4 | B8 || A8 | %11
 (D3 E)"^William Henry Havergal\n(1793-1870)" F4 | B4 G4 | A8 |] %14
V:2
 E8 | F4 F4 | (F6 G2) || (A6 E2) | D4 (E2 A2) | A4 G4 | A8 || E8 | D4 E4 | E8 || E8 | D4 D4 | %12
 D4 D4 | C8 |] %14
V:3
 A,8 | A,4 ^A,4 | B,8 || C8 | D4 A,4 | B,4 B,4 | A,8 || A,8 | A,4 A,4 | G,8 || A,8 | A,4 A,4 | %12
 B,4 B,4 | A,8 |] %14
V:4
 A,8 | (D,3 E,) F,4 | B,8 || A,,8 | D,4 C,4 | B,,4 E,4 | A,,8 || C,8 | (F,,3 G,,) A,,4 | D,8 || %10
 C,8 | F,4 D,4 | B,,4 E,4 | A,,8 |] %14
V:5
 c8 | f4 e4 | [Bd]8 || c8 | F3 G A4 | d4 B4 | c8 || A8 | d4 c4 | B8 || A8 | D3 E F4 | B4 G4 | A8 |] %14
V:6
 [EA]8 | [FA]4 [F^A]4 | F6 G2 || [EA]8 | D4 E4 | [DA]4 [EG]4 | [EA]8 || E8 | [DA]4 [EA]4 | %9
 [EGB]8 || E8 | x4 D4 | D4 D4 | C8 |] %14
V:7
 x8 | x8 | x8 || x8 | x8 | x8 | x8 || x8 | x8 | x8 || A,8 | A,4 A,4 | B,8 | A,8 |] %14
V:8
 A,8 | D,3 E, F,4 | B,8 || A,,8 | D,4 C,4 | B,,4 E,4 | A,,8 || C,8 | F,,3 G,, A,,4 | D,8 || C,8 | %11
 F,4 D,4 | B,,4 E,4 | A,,8 |] %14

